svgs/sharp-solid/hand-peace.svg

<svg xmlns="http://www.w3.org/2000/svg" viewBox="0 0 512 512"><!--! Font Awesome Pro 6.6.0 by @fontawesome - https://fontawesome.com License - https://fontawesome.com/license (Commercial License) Copyright 2024 Fonticons, Inc. --><path d="M256 0l0 240-64 0L192 0l64 0zm96 160l0 128-64 0 0-128 64 0zm32 32l64 0 0 128-64 0 0-128zM101.5 69.8L175.9 240l-69.9 0L42.8 95.4 30 66.1 88.6 40.5l12.8 29.3zM64 363l0-91 56.1 0 69.9 0 66.1 0 0 48 0 32-96 0-16 0 0 32 16 0 112 0 16 0 0-16 0-48 64 0 0 32 96 0c0 88.4-71.6 160-160 160l-61.7 0c-42.4 0-83.1-16.9-113.1-46.9l-11.6-11.6C77.5 429.5 64 396.9 64 363z"/></svg>

<svg xmlns="http://www.w3.org/2000/svg" viewBox="0 0 512 512"><!--! Font Awesome Pro 6.4.0 by @fontawesome - https://fontawesome.com License - https://fontawesome.com/license (Commercial License) Copyright 2023 Fonticons, Inc. --><path d="M256 0V240H192V0h64zm96 160V288H288V160h64zm32 32h64V320H384V192zM101.5 69.8L175.9 240H106.1L42.8 95.4 30 66.1 88.6 40.5l12.8 29.3zM64 363V272h56.1 69.9H256v48 32H160 144v32h16H272h16V368 320h64v32h96c0 88.4-71.6 160-160 160H226.3c-42.4 0-83.1-16.9-113.1-46.9l-11.6-11.6C77.5 429.5 64 396.9 64 363z"/></svg>
